src/assets/images/Group 15.svg

<svg width="27" height="22" viewBox="0 0 27 22" fill="none" xmlns="http://www.w3.org/2000/svg">
<path d="M26.9651 10.2711C27.1351 9.86611 26.6493 9.5211 26.2418 9.70111C25.4271 10.0583 24.5471 10.2422 23.6576 10.2411C20.1701 10.2411 17.3434 7.47105 17.3434 4.05348C17.343 2.8997 17.6708 1.76961 18.2884 0.795068C18.5251 0.421726 18.2409 -0.0949529 17.8076 0.0150496C14.4667 0.867569 12 3.8443 12 7.38522C12 11.5911 15.4792 15.0004 19.7717 15.0004C23.0218 15.0004 25.8051 13.0462 26.9651 10.2711Z" fill="#004990"/>
<path d="M22.5093 0.0856632C22.0676 -0.209344 21.5409 0.317335 21.8351 0.759012L22.3601 1.54653C22.5733 1.86576 22.6871 2.24102 22.6871 2.62489C22.6871 3.00876 22.5733 3.38402 22.3601 3.70325L21.8351 4.49076C21.5409 4.93244 22.0685 5.45912 22.5101 5.16411L23.2968 4.6391C23.616 4.42591 23.9913 4.31213 24.3751 4.31213C24.759 4.31213 25.1343 4.42591 25.4535 4.6391L26.241 5.16411C26.6827 5.45912 27.2093 4.93244 26.9143 4.49076L26.3893 3.70325C26.1761 3.38402 26.0624 3.00876 26.0624 2.62489C26.0624 2.24102 26.1761 1.86576 26.3893 1.54653L26.9143 0.759012C27.2093 0.317335 26.6827 -0.209344 26.2402 0.0856632L25.4535 0.610675C25.1343 0.823864 24.759 0.937646 24.3751 0.937646C23.9913 0.937646 23.616 0.823864 23.2968 0.610675L22.5093 0.0856632Z" fill="#004990"/>
<path d="M20.077 13.3679C19.8802 11.721 19.0865 10.185 17.8261 9.01183C16.5657 7.83864 14.9134 7.09786 13.14 6.91093C11.3667 6.724 9.57758 7.10203 8.066 7.98302C6.55442 8.86402 5.41007 10.1957 4.82059 11.7598C3.4698 11.8624 2.21414 12.4462 1.31645 13.3889C0.418754 14.3317 -0.0513782 15.5603 0.0044609 16.8176C0.0603 18.0748 0.637782 19.2633 1.61602 20.1342C2.59427 21.0052 3.89743 21.491 5.25274 21.49H20.1243C21.2843 21.4842 22.3944 21.0508 23.2102 20.2851C24.0261 19.5194 24.4809 18.4841 24.4746 17.4071C24.4684 16.33 24.0015 15.2994 23.1768 14.5419C22.3521 13.7844 21.2371 13.3621 20.077 13.3679Z" fill="white"/>
</svg>

<svg xmlns="http://www.w3.org/2000/svg" width="27" height="22" fill="none" viewBox="0 0 27 22"><path fill="#004990" d="M26.965 10.271c.17-.405-.316-.75-.723-.57a6.4 6.4 0 0 1-2.584.54c-3.488 0-6.315-2.77-6.315-6.188 0-1.153.328-2.283.945-3.258.237-.373-.047-.89-.48-.78C14.467.868 12 3.845 12 7.385 12 11.591 15.48 15 19.772 15c3.25 0 6.033-1.954 7.193-4.729"/><path fill="#004990" d="M22.51.086c-.442-.295-.97.231-.675.673l.525.788a1.94 1.94 0 0 1 0 2.156l-.525.788c-.294.441.233.968.675.673l.787-.525a1.94 1.94 0 0 1 2.156 0l.788.525c.442.295.968-.232.673-.673l-.525-.788a1.94 1.94 0 0 1 0-2.156l.525-.788c.295-.442-.231-.968-.674-.673l-.787.525a1.94 1.94 0 0 1-2.156 0z"/><path fill="#fff" d="M20.077 13.368c-.197-1.647-.99-3.183-2.25-4.356S14.912 7.098 13.14 6.91a8.36 8.36 0 0 0-5.074 1.072c-1.512.881-2.656 2.213-3.245 3.777-1.351.102-2.607.686-3.505 1.629S-.05 15.56.004 16.818c.056 1.257.634 2.445 1.612 3.316s2.281 1.357 3.637 1.356h14.871c1.16-.006 2.27-.44 3.086-1.205s1.27-1.8 1.265-2.878c-.007-1.077-.474-2.108-1.298-2.865a4.55 4.55 0 0 0-3.1-1.174"/></svg>
